src/assets/svg/ic-iw-24-line-teamcommunicator.svg

<svg id="Layer_1" data-name="Layer 1" xmlns="http://www.w3.org/2000/svg" width="24" height="24">
    <defs>
        <style/>
    </defs>
    <path d="M19 19a4.5 4.5 0 014.5 4.5v.5h-1v-.5a3.5 3.5 0 00-7-.5H21v1h-6a.5.5 0 01-.5-.5A4.5 4.5 0 0119 19zM1.5 23.5a3.5 3.5 0 017-.5H3v1h6a.5.5 0 00.5-.5 4.5 4.5 0 00-9 0v.5h1v-.5zM2 15a3 3 0 113 3 3 3 0 01-3-3zm1 0a2 2 0 102-2 2 2 0 00-2 2zm16-3a3 3 0 11-3 3 3 3 0 013-3zm2 3a2 2 0 10-2 2 2 2 0 002-2zM4.5 5a5 5 0 015-5 4.94 4.94 0 012.5.7 4.94 4.94 0 012.5-.7 5 5 0 01.5 10v1.5a.5.5 0 01-.86.35L12 9.62l-2.14 2.23A.5.5 0 019 11.5V10a5 5 0 01-4.5-5zm1 0a4 4 0 004 4 .5.5 0 01.5.5v.76l1.31-1.36.69-.73.39-.4a4 4 0 00.43-.54A4 4 0 0013.5 5a4.08 4.08 0 000-.56 4 4 0 00-.24-.95A2 2 0 0114.1 3a5 5 0 01-1 5.42l-.42.43L14 10.26V9.5a.5.5 0 01.5-.5 4 4 0 000-8 3.88 3.88 0 00-2.5.9 4 4 0 00-1.19 4.63l-.73.76a4.9 4.9 0 011-5.94A4 4 0 009.5 1a4 4 0 00-4 4z" id="path3720" fill="#0e0e0e"/>
</svg>

<svg id="Layer_1" data-name="Layer 1" xmlns="http://www.w3.org/2000/svg" width="24" height="24" viewBox="0 0 24 24"><defs><style>.cls-1{fill:#0e0e0e;}.cls-2{fill:none;}</style></defs><title>icon-iw-24-line-teamcommunicator</title><path
     class="cls-1"
     d="M19,19a4.5,4.5,0,0,1,4.5,4.5V24h-1V23.5a3.5,3.5,0,0,0-7-.5H21v1H15a0.5,0.5,0,0,1-.5-0.5A4.5,4.5,0,0,1,19,19ZM1.5,23.5a3.5,3.5,0,0,1,7-.5H3v1H9a0.5,0.5,0,0,0,.5-0.5,4.5,4.5,0,0,0-9,0V24h1V23.5ZM2,15a3,3,0,1,1,3,3A3,3,0,0,1,2,15Zm1,0a2,2,0,1,0,2-2A2,2,0,0,0,3,15Zm16-3a3,3,0,1,1-3,3A3,3,0,0,1,19,12Zm2,3a2,2,0,1,0-2,2A2,2,0,0,0,21,15ZM4.5,5a5,5,0,0,1,5-5A4.94,4.94,0,0,1,12,.7,4.94,4.94,0,0,1,14.5,0,5,5,0,0,1,15,10V11.5a0.5,0.5,0,0,1-.86.35L12,9.62,9.86,11.85A0.5,0.5,0,0,1,9,11.5V10A5,5,0,0,1,4.5,5Zm1,0a4,4,0,0,0,4,4,0.5,0.5,0,0,1,.5.5v0.76L11.31,8.9h0L12,8.17h0l0.39-.4a4,4,0,0,0,.43-0.54A4,4,0,0,0,13.5,5a4.08,4.08,0,0,0,0-.56h0a4,4,0,0,0-.24-0.95A2,2,0,0,1,14.1,3a5,5,0,0,1-1,5.42l-0.42.43L14,10.26V9.5A0.5,0.5,0,0,1,14.5,9a4,4,0,0,0,0-8,3.88,3.88,0,0,0-2.5.9,4,4,0,0,0-1.19,4.63l-0.73.76a4.9,4.9,0,0,1,1-5.94A4,4,0,0,0,9.5,1,4,4,0,0,0,5.5,5Z"
     id="path3720" /></svg>
